localPackages/DesignSystem/Sources/DesignSystem/Resources/Assets.xcassets/IconSet/ic-calendar-cells.imageset/ic-calendar-cells.svg

<svg width="24" height="24" viewBox="0 0 24 24" fill="none" xmlns="http://www.w3.org/2000/svg">
<g id="ic-calendar-cells">
<path id="Icon" fill-rule="evenodd" clip-rule="evenodd" d="M4.5 2.25V3.25606C2.75221 3.87381 1.5 5.54067 1.5 7.5V18C1.5 20.4853 3.51472 22.5 6 22.5H18C20.4853 22.5 22.5 20.4853 22.5 18V7.5C22.5 5.54067 21.2478 3.87381 19.5 3.25606V2.25C19.5 1.83579 19.1642 1.5 18.75 1.5C18.3358 1.5 18 1.83579 18 2.25V3H6V2.25C6 1.83579 5.66421 1.5 5.25 1.5C4.83579 1.5 4.5 1.83579 4.5 2.25ZM18 4.5H6C4.34315 4.5 3 5.84315 3 7.5L21 7.5C21 5.84315 19.6569 4.5 18 4.5ZM3 18V9H21V18C21 19.6569 19.6569 21 18 21H6C4.34315 21 3 19.6569 3 18ZM11.25 13.5C10.8358 13.5 10.5 13.8358 10.5 14.25C10.5 14.6642 10.8358 15 11.25 15H12.75C13.1642 15 13.5 14.6642 13.5 14.25C13.5 13.8358 13.1642 13.5 12.75 13.5H11.25ZM15.75 14.25C15.75 13.8358 16.0858 13.5 16.5 13.5H18C18.4142 13.5 18.75 13.8358 18.75 14.25C18.75 14.6642 18.4142 15 18 15H16.5C16.0858 15 15.75 14.6642 15.75 14.25ZM6 13.5C5.58579 13.5 5.25 13.8358 5.25 14.25C5.25 14.6642 5.58579 15 6 15H7.5C7.91421 15 8.25 14.6642 8.25 14.25C8.25 13.8358 7.91421 13.5 7.5 13.5H6Z" fill="#0F0F0F"/>
</g>
</svg>

<svg xmlns="http://www.w3.org/2000/svg" width="24" height="24" viewBox="0 0 24 24">
  <g class="ic-calendar-cells">
    <path fill-rule="evenodd" d="M4.5 2.25v1.006a4.502 4.502 0 0 0-3 4.244V18A4.5 4.5 0 0 0 6 22.5h12a4.5 4.5 0 0 0 4.5-4.5V7.5a4.502 4.502 0 0 0-3-4.244V2.25a.75.75 0 0 0-1.5 0V3H6v-.75a.75.75 0 0 0-1.5 0ZM18 4.5H6a3 3 0 0 0-3 3h18a3 3 0 0 0-3-3ZM3 18V9h18v9a3 3 0 0 1-3 3H6a3 3 0 0 1-3-3Zm8.25-4.5a.75.75 0 0 0 0 1.5h1.5a.75.75 0 0 0 0-1.5h-1.5Zm4.5.75a.75.75 0 0 1 .75-.75H18a.75.75 0 0 1 0 1.5h-1.5a.75.75 0 0 1-.75-.75ZM6 13.5A.75.75 0 0 0 6 15h1.5a.75.75 0 0 0 0-1.5H6Z" class="Icon"/>
  </g>
</svg>
